X:1
T:Snoring Sampson
T:Snoring  Sampson.
T:A Quarrel in Ragtime.
T:HARRY  LA  MERTHA.
T:Arr. by Scott Joplin.
T:“Maple Leaf Rag”. “Antoinette” etc.
T:Composer of
T:Public Domain
T:Public Domain
T:Public Domain
T:Public Domain
T:Public Domain
C:Harry La Mertha
Z:Public Domain
%%score 1 { ( 2 4 5 ) | ( 3 6 ) }
L:1/8
Q:1/4=120
M:4/4
K:C
V:1 treble nm="Voice"
V:2 treble nm="Piano"
V:4 treble 
V:5 treble 
V:3 bass 
V:6 bass 
V:1
"^Moderato." z2 | z8 | z8 | z8 | z8 |: z8 | z8 :| E2 E2 E2 F2 | G2 G2 G2 (A B) | %9
w: |||||||Sam- uel Samp- son|was~ a~ coon~ with~ a~|
w: |||||||Sam- uel loved his|wife- y and he _|
 (c A) c B- B2 (E F) | (E ^D) E =D- D2 z ^D | (E E) (E E) E2 F2 | G2 G2 G2 (GA) | %13
w: bass- * so voice, _ He~ was~|kind _ and~ true~ * *|To~ a~ lit- tle~ dusk- y~|maid- en~ that~ he _|
w: said, _ I see _ I _|both- * ers you, * So,|hon- * ey * when I|wakes you in the _|
 (B ^A) B d- d2 (c B) | (BG) A G- G2 z2 | d c B c d c B c | (d ^c) (c d) B2 G- G | %17
w: made _ his~ choice~ _ in _|nine- * teen- two. _|Ev- 'ry~ time~ they~ went~ to~ bed~ there~|was~ a~ big~ up- roar,~ For _|
w: mid- dle of the night with a|bass _ ta- too, _|Ev- 'ry time I el- o- cutes that|honk _ honk _ store, Put your|
 c B c d e d c d | (e d2) e (c2 B) B | c B A B c B A B | c c d ^d e3 G | (^F F) A B c2 ^c2 | %22
w: when~ it~ came~ to~ snor- ing,~ Samp- son~|had _ the~ floor.~ _ One|night this~ dusk- y~ la- dy~ was~ a~|feel- ing~ might- y~ sore,~ And~|this,~ she~ said~ to~ Sam- uel~|
w: feet a- gin ma back and shove me|out on the floor. But, Ma-|til- dah shout- ed loud- er, "no, I'll|just show you the door, *|Sam- * u- el Simp- son|
 d4 G2- G ||[M:4/4]"^CHORUS." G |: G G G G ^G G G G | A2 A2 F2 z2 | z2 G2 (ec) d c- | c6 G2 | %28
w: Samp- son. _|I~|tell~ you~ Mis- ter~ Samp- son,~ You~ must~|stop~ that~ snore,~|or~ I'll * ski- doo.|_ I~|
w: Samp- son. _|_|||||
 G2 G G ^G G G G | A A A A ^A2 z2 | z2 B B (B^A) B G- | G2 z2 z2 G2 | d c B c d c B c | %33
w: don't~ like~ a~ fog- horn~ in~ the~|mid- dle~ of~ the~ night,~|I'm~ a~ tell- * ing~ you|_ I~|tells~ you~ that~ I~ loves~ you~ and~ I~|
w: |||||
 (d ^c2) d B2 G G | c B c A B A G G | A A2 _A G2 z2 | z8 |1 C4 c4- | c2 e e (ec) =d c- | %39
w: hate _ to~ squeal~ but,~ I~|in- form- a- tion you~ this~ bed's~ no~|au- to- mo- bile.||Samp- son,|_ I'm a tell- * ing~ you.~|
w: ||||||
 c2 z2 z2 G2 :|2 C4 c4- | c2 e e (ec) =d c- | c4- c2 |] %43
w: _ I~|Samp- son,|_ I'm~ a~ tell- * ing~ you.~|_ _|
w: ||||
V:2
 [Gg]2 | [Gceg][Gceg][Gceg][Gceg] [^GBe^g][GBeg][GBeg][GBeg] |!<(! aea(f!<)! f2) z2 | %3
 z2!mf! ee (ecdc-) | c2 [Bfg]2 [cec']2 z2 |:!mp!"^R.H.""^Vamp 'till ready" (e^dec) (E^DEC) | %6
 (^F,2 =F,2- F,2) [GBdg]2 :| [G,CE]2 [A,CE]2 [G,CE]2 [G,B,F]2 | [G,CG]2 [G,B,FG]2 [G,CEG]2 (AB) | %9
 (cAcB- B2) (EF) | (E^DE)=D- D2 (D^D) | [G,CE]2 [A,CE]2 [G,CE]2 [G,B,F]2 | %12
 [G,CG]2 [G,B,FG]2 [G,CEG]2 ([CG][^CA]) | B^ABd- d2 (cB) | BGAG- G2 [GBdg]2 | %15
 ([FGd][EGc][DGB][EGc]) ([FGd][EGc][DGB][EGc]) | ([FBd][E^A^c][EAc][FBd]) [DFB]2 GG | %17
 (cBcd) (edcd) | (e d2) e c2 BB | (cBAB) (cBAB) | ccd^d e3 =G | ^FFAB [DFc]2 [EG^c]2 | %22
 (d4 G2-) G ||[M:4/4] G |: GGGG ^GGGG | (AEAF- F2) z2 | z2 (Ge) ecdc- | c6 G2 | G2 GG ^GGGG | %29
 AAAA [^CG^A]2 z2 | z2 BB B^ABG- | [B,DG]2 [^Fcd]2 [GBdg]2 G2 | %32
 ([=FGd][EGc][DGB][EGc]) ([FGd][EGc][DGB][EGc]) | [FBd] [E^A^c]2 [FBd] [DFB]2 GG | (cBcA) (BAG)G | %35
 A A2 _A G2 [cc'][Bb] | [Aa] [Aa]2 [_A_a] [Gg]2 z2 |1!<(! [A,C]4!<)! ([^Dc]4 | c2)!f! ee (ec=dc-) | %39
 c2 G^F G2 G2 :|2!<(! [A,C]4!<)! ([^Dc]4 | c2)!f! ee (ec=dc-) | c4 c2 |] %43
V:3
 z2 | [C,C]2 [G,CE]2 [E,E]2 [D,D]2 | [C,C]2 [^C,^C]2 [D,D]2 !^![^F,,^F,]2 | %3
 !^![G,,G,]2 [G,CE]2 [A,,A,]2 [G,,G,]2 | [C,C]2 [G,,G,]2 [C,,C,]2 z2 |: %5
"^L.H."[I:staff -1] (G^FGE)[I:staff +1] (G,^F,G,E,) | (A,,2 _A,,2 G,,2) [G,,,G,,]2 :| %7
 C,2 A,,2 C,2 D,2 | E,2 D,2 C,2 z2 | [A,,A,]2 [A,,A,]E,- E,2 z2 | E,4- E,2 [F,=G,B,]2 | %11
 C,2 A,,2 C,2 D,2 | E,2 D,2 C,2 E,_E, | D,2 G,2 F,2 E,2 | [E,,E,]2 [D,,D,]2 [G,,G,]2 [G,,,G,,]2 | %15
 (G,,2 G,2 G,,2 G,) z | (G,,2 G,2 G,,2) [D,G,B,]2 | C,2 [G,C]2 C,2 [G,C]2 | %18
 G,,2 [G,B,]2 (G,E,) [^G,,E,^G,]2 | (A,,2 E,2 [^F,A,C]4) | [E,A,C]2 [F,A,B,]2 (([^G,B,]2 [A,C]2)) | %21
 [D,A,]4 [A,,A,]2 [^A,,^A,]2 | [B,,B,]2 ([A,,A,][D,,D,]) [G,,G,]2- [G,,G,] ||[M:4/4] z |: %24
 C,2 [E,G,C]2 (E,2 D,2) | C,2 ^C,2 D,2 [^F,,^F,]2 | [G,,G,]2 [G,CE]2 [A,,A,]2 [G,,G,]2 | %27
 [C,C]2 F,2 E,2 D,2 | C,2 [E,G,C]2 (E,2 D,2) | C,2 [E,,E,]2 [_E,,_E,]2 !^![^C,,^C,]2 | %30
 !^![D,,D,]2 [D,G,B,]2 [D,,D,]2 [D,,D,]2 | [G,,G,]2 [D,,D,]2 [G,,,G,,]2 z2 | (G,,2 G,2 G,,2 G,2) | %33
 G,,2 G,2 G,,2 [D,G,B,]2 | C,2 [E,G,C]2 D,2 [F,G,B,]2 | (([^D,^F,]4 [E,G,]2)) [A,,A,][G,,G,] | %36
 [F,,F,] [F,,F,]3 [E,,E,]2 [^D,,^D,]2 |1 ([E,,E,]2 [F,,F,]2) ([A,,A,]2 !^![^F,,^F,]2) | %38
 !^![G,,G,]2 [G,CE]2 [A,,A,]2 [G,,G,]2 | [C,C]2 G,^F, G,2 [D,G,B,]2 :|2 %40
 ([E,,E,]2 [F,,F,]2) ([A,,A,]2 !^![^F,,^F,]2) | !^![G,,G,]2 [G,CE]2 [A,,A,]2 G,2- | %42
 (G,2 _A,2 G,2) |] %43
V:4
 x2 | x8 | [Ace]2 [Ae][Ad]- [Ad]2 x2 | x2 [Gc]2 [^Fc]2 [=FB][EG]- | [EG]2 x2 x2 x2 |: x8 | %6
 =D4- D2 x2 :| x8 | x8 | [EA]2 [EA][E^G]- [EG]2 x2 | x8 | x8 | x4 x2 G2 | %13
 [DG]3 [DG]- [DG]2 [D^G]2 | [^C=G]2 [=C^F][B,D]- [B,D]2 x2 | x8 | x4 x2 F2 | [EG]8 | %18
 [GB] [FB]3 [EG]2 [DE]2 | [CE]4 ^D4 | EA B2 (B2 E2) | [CD]4 x4 | %22
 ((([DG]2 [CD^F]2))) [B,D]2- [B,D] ||[M:4/4] x |: E4 [B,E]4 | [A,E]2 [A,E][A,D]- [A,D]2 x2 | %26
 x2 x x [^Fc]2 [=FB][EG]- | [EG]2 [CA]2 [CG]2 [B,F]2 | E4 [B,E]4 | [CE]2 [CG]2 x2 x2 | %30
 x2 [DG]2 [C^F]2 [CF][B,D]- | x8 | x8 | x4 x2 F2 | (E4 (F4) | C4-) C2 x2 | x8 |1 x4 (^F2 (A2) | %38
 [EG]2) [Gc]2 [^Fc]2 [=FB][EG]- | [EG]2 z2 z2 =F2 :|2 x4 (^F2 (A2) | [EG]2) [Gc]2 [^Fc]2 [=FB]E- | %42
 (E2 F2 E2) |] %43
V:5
 x2 | x8 | x8 | x8 | x8 |: x8 | (C4 B,2) x2 :| x8 | x8 | x8 | x8 | x8 | x8 | x8 | x8 | x8 | x8 | %17
 x8 | x8 | x8 | x8 | x8 | x7 ||[M:4/4] x |: x8 | x8 | x8 | x8 | x8 | x8 | x8 | x8 | x8 | x8 | x8 | %35
 x8 | x8 |1 x8 | x8 | x8 :|2 x8 | x8 | x6 |] %43
V:6
 x2 | x8 | x8 | x8 | x8 |: x8 | x8 :| x8 | x8 | x8 | [A,C]3 [^G,B,]- [G,B,]2 x2 | x8 | x8 | x8 | %14
 x8 | x8 | x8 | x8 | x4 [C,C]2 x2 | [E,A,]4 x4 | x4 E,4 | x8 | x7 ||[M:4/4] x |: x8 | x8 | x8 | %27
 x8 | x8 | x8 | x8 | x8 | x8 | x8 | x8 | x8 | x8 |1 x8 | x8 | x8 :|2 x8 | x4 x2 G,,2 | C,4 C,2 |] %43

